X: 21633
M: C
L: 1/8
K: D
f> g |\
(a<f) (e>f) d2 (f<d) |\
(f<a) (b<d') (a<f) d3/ (e//f//) |\
(a<f) (e>f) d2 f>d |\
(B<d) (A<F) A2 d>e |\
(f<a) (b<d') (a<f) (e<f) |
d4 z4 |] \
d>e f>g a>f d'2 |\
d>e f>g a>f Hd'>d |\
d>e d>B A<F A>d |\
fd fa Hbc' Hd'(c'/b/) |\
a<f f<d B<d A<d |\
f<a e<f d2 z2 |]


